svgs/sharp-solid/circle-i.svg

<svg xmlns="http://www.w3.org/2000/svg" viewBox="0 0 512 512"><!--! Font Awesome Pro 6.6.0 by @fontawesome - https://fontawesome.com License - https://fontawesome.com/license (Commercial License) Copyright 2024 Fonticons, Inc. --><path d="M256 512A256 256 0 1 0 256 0a256 256 0 1 0 0 512zM184 128l72 0 72 0 24 0 0 48-24 0-48 0 0 160 48 0 24 0 0 48-24 0-48 0-48 0-48 0-24 0 0-48 24 0 48 0 0-160-48 0-24 0 0-48 24 0z"/></svg>

<svg xmlns="http://www.w3.org/2000/svg" viewBox="0 0 512 512"><!--! Font Awesome Pro 6.4.0 by @fontawesome - https://fontawesome.com License - https://fontawesome.com/license (Commercial License) Copyright 2023 Fonticons, Inc. --><path d="M256 512A256 256 0 1 0 256 0a256 256 0 1 0 0 512zM184 128h72 72 24v48H328 280V336h48 24v48H328 280 232 184 160V336h24 48V176H184 160V128h24z"/></svg>
